X: 35534
T: Runaway Fiddle, The
R: jig
M: 6/8
K: Gmajor
D2G EGD|GAB d2e|g2d egd|ede gdB
GFG EGD|GAB d2e|g2d edB|AGF G3:|
G2A B2d|ede gfg|deg aga|baa a2a|
bag agd|e2g edB|d2e dBA|BGG G3:|

